X:7844
T:Vienna Waltz. JMT117
O:england
M:3/4
L:1/16
Q:140
S:J.Moore,Tyneside,1841.(82)
R:Waltz
A:Northumbria
K:G
G3(ABc)|B-dbdbd|A-cacac|B-dgdgd|G3(ABc)|B-dbdbd|
A-cacac|g4z2:|
|:.g2(GBdg)|(ba^gaga)|.f2(FAcf)|(agfgfg|G3(ABc)|
B-dbdbd|A-cacac|g6:|
K:C
|:E-GcGeG|E-GcGeG|{e}f2{e}f2{e}f2|d4BG|
E-GcGeG|E-GcGeG|{e}f2{e}f2dB|c4:||:ga|g-a(gabc')|g4eg|
f2f2dB|ceG2ga|g-a(gabc'|g4eg|{g}f2f2dB|c4:|]
